!!!COM: Corelli, Arcangelo
!!!OTL: 
!!!ONM: Opus 6, No. 1
!!!OMV: 5
!!!CDT: 1653/2/17/-1713/1/8/
!!!OCY: Italia
**kern	**kern	**kern	**kern	**kern	**kern	**kern
*clefC	*clefG	*clefG	*clefG	*clefC	*clefG	*clefG
*k[f#c#]	*k[f#c#]	*k[f#c#]	*k[f#c#]	*k[f#c#]	*k[f#c#]	*k[f#c#]
*D:	*D:	*D:	*D:	*D:	*D:	*D:
*M4/2	*M4/2	*M4/2	*M4/2	*M4/2	*M4/2	*M4/2
=1	=1	=1	=1	=1	=1	=1
2r	2r	2r	2r	2r	2r	1aa
1.r	1.r	1.r	1.r	1.r	1.r	.
.	.	.	.	.	.	2.bb
.	.	.	.	.	.	4ccc#
=2	=2	=2	=2	=2	=2	=2
2r	2r	2r	2r	2r	1dd	4ddd
.	.	.	.	.	.	4aa
1.r	1.r	1.r	1.r	1.r	.	1ddd
.	.	.	.	.	2.ee	.
.	.	.	.	.	.	[2ccc
.	.	.	.	.	4ff#	.
=3	=3	=3	=3	=3	=3	=3
2r	2r	2r	2r	2r	4gg	2ccc]
.	.	.	.	.	4dd	.
1.r	1.r	1.r	1.r	1.r	1gg	2bb
.	.	.	.	.	.	2gg
.	.	.	.	.	2ff#	[2ddd
=4	=4	=4	=4	=4	=4	=4
2r	1a	2r	2r	1A	2ee	2ddd]
1.r	.	1.r	1.r	.	1aa	2ccc#
.	2.b	.	.	2.B	.	2.ddd
.	.	.	.	.	[2gg	.
.	4cc#	.	.	4c#	.	4eee
=5	=5	=5	=5	=5	=5	=5
1D	4dd	2r	2r	1D	2gg]	2aa
.	4a	.	.	.	.	.
.	2dd	2ff#	1dd	.	2ff#	1dd
2.E	1g	2.gg	.	2.E	2.gg	.
.	.	.	[2cc	.	.	[2cc
4F#	.	4aa	.	4F#	4aa	.
=6	=6	=6	=6	=6	=6	=6
4G	2r	2dd	2cc]	4G	2dd	2cc]
4D	.	.	.	4D	.	.
1G	2b	2dd	2b	1G	2dd	2b
.	2.a	2ee	4cc#	.	2ee	4cc#
.	.	.	4a	.	.	4a
2F#	.	2ff#	[2dd	2F#	2ff#	[2dd
.	4a	.	.	.	.	.
=7	=7	=7	=7	=7	=7	=7
2E	4b	1gg	2dd]	2E	1gg	2dd]
.	4g	.	.	.	.	.
2AA	2a	.	2cc#	2AA	.	2cc#
2D	2a	2ff#	2dd	2D	2ff#	2dd
[2d	2f#	2f#	2a	[2d	2f#	2a
=8	=8	=8	=8	=8	=8	=8
2d]	2.e	2g#	2b	2d]	2g#	2b
2c#	.	1a	2cc#	2c#	1a	2cc#
.	4e	.	.	.	.	.
2B	4f#	.	1dd	2B	.	1dd
.	4d	.	.	.	.	.
2E	2e	2g#	.	2E	2g#	.
=9	=9	=9	=9	=9	=9	=9
1AA	1e	2a	2cc#	1AA	2a	2cc#
.	.	2cc#	2.aa	.	2cc#	2.aa
2.BB	1r	2.dd	.	2.BB	2.dd	.
.	.	.	4dd	.	.	4dd
.	.	.	[2gg	.	.	[2gg
4C#	.	4ee	.	4C#	4ee	.
=10	=10	=10	=10	=10	=10	=10
4D	2r	2a	2gg]	4D	2a	2gg]
4AA	.	.	.	4AA	.	.
2D	2f#	2aa	1ff#	2D	2aa	1ff#
2BB	2d	1gg	.	2BB	1gg	.
2C#	2e	.	[2ee	2C#	.	[2ee
=11	=11	=11	=11	=11	=11	=11
2D	2A	1ff#	4ee]	2D	1ff#	4ee]
.	.	.	4a	.	.	4a
2F#	2a	.	1dd	2F#	.	1dd
2G#	2b	1ee	.	2G#	1ee	.
2A#	2cc#	.	[2cc#	2A#	.	[2cc#
=12	=12	=12	=12	=12	=12	=12
2B	1f#	1dd	4cc#]	4B	1dd	4cc#]
.	.	.	4f#	4c#	.	4f#
2BB	.	.	1b	4d	.	1b
.	.	.	.	4e	.	.
1F#	2.f#	2cc#	.	2.f#	2cc#	.
.	.	[2ff#	2a#	.	[2ff#	2a#
.	4e	.	.	4e	.	.
=13	=13	=13	=13	=13	=13	=13
1BB	4d#	4ff#]	2.bb	4d#	4ff#]	2.bb
.	4c#	4ee	.	4c#	4ee	.
.	4B	4dd#	.	4B	4dd#	.
.	4d#	4ff#	4aa	4d#	4ff#	4aa
1r	2.e	2b	4gg#	2.e	2b	4gg#
.	.	.	4ff#	.	.	4ff#
.	.	[2ee	4ee	.	[2ee	4ee
.	4d	.	4gg#	4d	.	4gg#
=14	=14	=14	=14	=14	=14	=14
1r	4c#	4ee]	2.aa	4c#	4ee]	2.aa
.	4B	4dd	.	4B	4dd	.
.	4A	4cc#	.	4A	4cc#	.
.	4c#	4ee	4gg	4c#	4ee	4gg
4D	1d	1a	4ff#	4D	1a	4ff#
4C#	.	.	4a	4C#	.	4a
4BB	.	.	[2dd	4BB	.	[2dd
4AA	.	.	.	4AA	.	.
=15	=15	=15	=15	=15	=15	=15
2.GG	1r	2.b	4dd]	2.GG	2.b	4dd]
.	.	.	4b	.	.	4b
.	.	.	2ee	.	.	2ee
4G	.	4cc#	.	4G	4cc#	.
4F#	1d	4dd	2.a	4F#	4dd	2.a
4E	.	4a	.	4E	4a	.
4F#	.	[2dd	.	4F#	[2dd	.
4D	.	.	4ff#	4D	.	4ff#
=16	=16	=16	=16	=16	=16	=16
1A	2.e	2dd]	4ee	1A	2dd]	4ee
.	.	.	4ff#	.	.	4ff#
.	.	2cc#	4gg	.	2cc#	4gg
.	4f#	.	4aa	.	.	4aa
2.B	2.g	1b	4dd	2.B	1b	4dd
.	.	.	4cc#	.	.	4cc#
.	.	.	4dd	.	.	4dd
4c#	4g	.	4ee	4c#	.	4ee
=17	=17	=17	=17	=17	=17	=17
4d	4f#	1a	2ff#	4d	1a	2ff#
4A	4e	.	.	4A	.	.
2d	4f#	.	4a	2d	.	4a
.	4g#	.	4b	.	.	4b
1A	4a	1aa	2cc#	1A	1aa	2cc#
.	4e	.	.	.	.	.
.	2cc#	.	[2aa	.	.	[2aa
=18	=18	=18	=18	=18	=18	=18
1r	2dd	2.bb	2aa]	1r	2.bb	2aa]
.	2ee	.	1gg	.	.	1gg
.	.	4ccc#	.	.	4ccc#	.
1D	1a	4ddd	.	1D	4ddd	.
.	.	4aa	.	.	4aa	.
.	.	[2ddd	2ff#	.	[2ddd	2ff#
=19	=19	=19	=19	=19	=19	=19
2.E	1.r	2ddd]	2.gg	2.E	2ddd]	2.gg
.	.	1ccc	.	.	1ccc	.
4F#	.	.	4aa	4F#	.	4aa
4G	.	.	2.dd	4G	.	2.dd
4D	.	.	.	4D	.	.
[2G	2d	2bb	.	[2G	2bb	.
.	.	.	4b	.	.	4b
=20	=20	=20	=20	=20	=20	=20
2G]	2e	2aa	4cc#	2G]	2aa	4cc#
.	.	.	4a	.	.	4a
2F#	2f#	1dd	2aa	2F#	1dd	2aa
4G#	2.e	.	2bb	4G#	.	2bb
4E	.	.	.	4E	.	.
[2A	.	2cc#	2ccc#	[2A	2cc#	2ccc#
.	4e	.	.	.	.	.
=21	=21	=21	=21	=21	=21	=21
2A]	4f#	2b	2.ddd	2A]	2b	2.ddd
.	4d	.	.	.	.	.
2G#	2e	2.bb	.	2G#	2.bb	.
.	.	.	4bb	.	.	4bb
1c#	1A	.	2eee	1c#	.	2eee
.	.	4ee	.	.	4ee	.
.	.	4aa	[2ee	.	4aa	[2ee
.	.	4gg	.	.	4gg	.
=22	=22	=22	=22	=22	=22	=22
1d	2r	4ff#	4ee]	1d	4ff#	4ee]
.	.	4ff#	4aa	.	4ff#	4aa
.	2f#	4bb	1ddd	.	4bb	1ddd
.	.	4aa	.	.	4aa	.
2e	2b	4gg#	.	2e	4gg#	.
.	.	4ee	.	.	4ee	.
2A	4cc#	2aa	2ccc#	2A	[2aa	2ccc#
.	4dd	.	.	.	.	.
=23	=23	=23	=23	=23	=23	=23
1E	2ee	2aa	1bb	1E	2aa]	1bb
.	2e	2gg#	.	.	2gg#	.
1A	1c#	1aa	2aa	1A	1aa	2aa
.	.	.	[2a	.	.	[2a
=24	=24	=24	=24	=24	=24	=24
1D	2r	1f#	2a]	1D	1f#	2a]
.	4d	.	1dd	.	.	1dd
.	4c#	.	.	.	.	.
1G	4B	1b	.	1G	1b	.
.	4A	.	.	.	.	.
.	2G	.	[2b	.	.	[2b
=25	=25	=25	=25	=25	=25	=25
1E	2r	1g#	2b]	1E	1g#	2b]
.	4e	.	1ee	.	.	1ee
.	4d	.	.	.	.	.
1A	4c#	1cc#	.	1A	1cc#	.
.	4B	.	.	.	.	.
.	2A	.	[2cc#	.	.	[2cc#
=26	=26	=26	=26	=26	=26	=26
1F#	2r	1a	2cc#]	1F#	1a	2cc#]
.	4f#	.	1ff#	.	.	1ff#
.	4e	.	.	.	.	.
1B	4d	1dd	.	1B	1dd	.
.	4c#	.	.	.	.	.
.	2B	.	[2dd	.	.	[2dd
=27	=27	=27	=27	=27	=27	=27
1G	2r	1b	2dd]	1G	1b	2dd]
.	4g	.	1gg	.	.	1gg
.	4f#	.	.	.	.	.
2A	4e	2cc#	.	2A	2cc#	.
.	4A	.	.	.	.	.
2D	2a	[2dd	2ff#	2D	[2dd	2ff#
=28	=28	=28	=28	=28	=28	=28
2GG#	2b	2dd]	1ee	2GG#	2dd]	1ee
2AA#	2cc#	1cc#	.	2AA#	1cc#	.
4BB	1f#	.	1dd	4BB	.	1dd
4C#	.	.	.	4C#	.	.
4D	.	[2b	.	4D	[2b	.
4E	.	.	.	4E	.	.
=29	=29	=29	=29	=29	=29	=29
4F#	2r	2b]	1cc#	4F#	2b]	1cc#
4G	.	.	.	4G	.	.
4A	2f#	1a	.	4A	1a	.
4F#	.	.	.	4F#	.	.
4G	2d	.	1b	4G	.	1b
4A	.	.	.	4A	.	.
4B	4g	[2g	.	4B	[2g	.
4G	4f#	.	.	4G	.	.
=30	=30	=30	=30	=30	=30	=30
4A	2e	2g]	2cc#	4A	2g]	2cc#
4A	.	.	.	4A	.	.
4B	2d	2f#	1dd	4B	2f#	1dd
4F#	.	.	.	4F#	.	.
4G	2b	1e	.	4G	1e	.
4E	.	.	.	4E	.	.
4A	2a	.	2cc#	4A	.	2cc#
4AA	.	.	.	4AA	.	.
=31	=31	=31	=31	=31	=31	=31
2D	2a	2f#	2dd	2D	2f#	2dd
2GG	4g	1g	2b	2GG	1g	2b
.	4f#	.	.	.	.	.
2AA	2e	.	2c#	2AA	.	2c#
2D	4f#	2f#	[2d	2D	2f#	[2d
.	4g	.	.	.	.	.
=32	=32	=32	=32	=32	=32	=32
1AA	2a	1e	2d]	1AA	1e	2d]
.	2A	.	2c#	.	.	2c#
1DD	1A	1f#	1d	1DD	1f#	1d
=33	=33	=33	=33	=33	=33	=33
2r	2r	2r	2r	1r	2r	1dd
1.r	1.r	1.r	1.r	.	1.r	.
.	.	.	.	1A	.	2ee
.	.	.	.	.	.	2ff#
=34	=34	=34	=34	=34	=34	=34
2r	2r	2r	2r	2B	1r	1gg
1.r	1.r	1.r	1.r	2c#	.	.
.	.	.	.	2.d	1a	4ff#
.	.	.	.	.	.	4gg
.	.	.	.	.	.	[2aa
.	.	.	.	4c#	.	.
=35	=35	=35	=35	=35	=35	=35
2r	2r	2r	2r	2B	1b	2aa]
1.r	1.r	1.r	1.r	2e	.	1gg
.	.	.	.	2A	2cc#	.
.	.	.	.	[2d	2dd	2ff#
=36	=36	=36	=36	=36	=36	=36
2r	2r	2r	2r	2d]	2ee	2gg#
1.r	1.r	1.r	1.r	2c#	2a	1aa
.	.	.	.	2B	1dd	.
.	.	.	.	2E	.	2gg#
=37	=37	=37	=37	=37	=37	=37
1r	1r	1r	2r	1A	1cc#	2aa
.	.	.	1a	.	.	1a
1D	4d	1f#	.	1D	1f#	.
.	4c#	.	.	.	.	.
.	4B	.	[2b	.	.	[2b
.	4A	.	.	.	.	.
=38	=38	=38	=38	=38	=38	=38
1E	2.G	1g	2b]	1E	1g	2b]
.	.	.	1cc#	.	.	1cc#
.	4g	.	.	.	.	.
1F#	4f#	1a	.	1F#	1a	.
.	4e	.	.	.	.	.
.	4d	.	[2dd	.	.	[2dd
.	4c#	.	.	.	.	.
=39	=39	=39	=39	=39	=39	=39
[1G	2B	1b	2dd]	[1G	1b	2dd]
.	4g	.	4ee	.	.	4ee
.	4f#	.	4dd	.	.	4dd
2G]	2e	2a	4cc#	2G]	2a	4cc#
.	.	.	4a	.	.	4a
4F#	2d	4aa	[2dd	4F#	4aa	[2dd
4G	.	4bb	.	4G	4bb	.
=40	=40	=40	=40	=40	=40	=40
2.A	2.a	1ee	2dd]	2.A	1ee	2dd]
.	.	.	1cc#	.	.	1cc#
4A#	4cc#	.	.	4A#	.	.
4B	2.f#	1dd	.	4B	1dd	.
4c#	.	.	.	4c#	.	.
4d	.	.	[2b	4d	.	[2b
4B	4dd	.	.	4B	.	.
=41	=41	=41	=41	=41	=41	=41
2c#	2g#	2e#	2b]	2c#	2e#	2b]
2F#	4a	1f#	2a	2F#	1f#	2a
.	4b	.	.	.	.	.
1C#	2cc#	.	1g#	1C#	.	1g#
.	2c#	2e#	.	.	2e#	.
=42	=42	=42	=42	=42	=42	=42
1FF#	1c#	1f#	1f#	1FF#	4aa	1f#
.	.	.	.	.	4gg	.
.	.	.	.	.	4ff#	.
.	.	.	.	.	4ee	.
1r	1r	1r	1r	1r	4dd	1aa
.	.	.	.	.	4cc#	.
.	.	.	.	.	4b	.
.	.	.	.	.	4a	.
=43	=43	=43	=43	=43	=43	=43
1r	2r	1.r	1r	1r	2g	2.bb
.	1.r	.	.	.	1gg	.
.	.	.	.	.	.	4ccc#
4D	.	.	2aa	4D	.	4ddd
4E	.	.	.	4E	.	4aa
4F#	.	2ff#	[2ddd	4F#	2ff#	[2ddd
4G	.	.	.	4G	.	.
=44	=44	=44	=44	=44	=44	=44
4A	2.a	1ee	2ddd]	4A	1ee	2ddd]
4B	.	.	.	4B	.	.
4c#	.	.	1ccc#	4c#	.	1ccc#
4A#	4cc#	.	.	4A#	.	.
4B	2.f#	1dd	.	4B	1dd	.
4c#	.	.	.	4c#	.	.
4d	.	.	[2bb	4d	.	[2bb
4B	4e	.	.	4B	.	.
=45	=45	=45	=45	=45	=45	=45
4e	4g	1cc#	2bb]	4e	1cc#	2bb]
4c#	4e	.	.	4c#	.	.
4f#	2f#	.	2aa#	4f#	.	2aa#
4F#	.	.	.	4F#	.	.
1B	1f#	1b	4bb	1B	1b	4bb
.	.	.	4aa	.	.	4aa
.	.	.	4gg	.	.	4gg
.	.	.	4ff#	.	.	4ff#
=46	=46	=46	=46	=46	=46	=46
2r	1r	4ee	4gg	2r	4ee	4gg
.	.	4dd	4ff#	.	4dd	4ff#
1.r	.	4cc#	4ee	1.r	4cc#	4ee
.	.	4b	4dd	.	4b	4dd
.	4a	4cc#	1ee	.	4cc#	1ee
.	4g	4b	.	.	4b	.
.	4f#	4a	.	.	4a	.
.	4e	4g	.	.	4g	.
=47	=47	=47	=47	=47	=47	=47
4d	2d	2f#	4ff#	4d	2f#	4ff#
4c#	.	.	4ee	4c#	.	4ee
4B	2f#	2a	4dd	4B	2a	4dd
4A	.	.	4cc#	4A	.	4cc#
4G	1g	1b	4b	4G	1b	4b
4F#	.	.	4a	4F#	.	4a
4E	.	.	4g	4E	.	4g
4D	.	.	4f#	4D	.	4f#
=48	=48	=48	=48	=48	=48	=48
1AA	1a	4cc#	2e	1AA	4cc#	2e
.	.	4a	.	.	4a	.
.	.	2.aa	2cc#	.	2.aa	2cc#
2.BB	1r	.	2.dd	2.BB	.	2.dd
.	.	4dd	.	.	4dd	.
.	.	[2gg	.	.	[2gg	.
4C#	.	.	4ee	4C#	.	4ee
=49	=49	=49	=49	=49	=49	=49
4D	2.d	2gg]	2a	4D	2gg]	2a
4AA	.	.	.	4AA	.	.
1D	.	2ff#	2aa	1D	2ff#	2aa
.	4f#	.	.	.	.	.
.	2.e	2gg#	2bb	.	2gg#	2bb
2C#	.	[2aa	2ccc#	2C#	[2aa	2ccc#
.	4e	.	.	.	.	.
=50	=50	=50	=50	=50	=50	=50
2BB	4f#	2aa]	1ddd	2BB	2aa]	1ddd
.	4d	.	.	.	.	.
2E	2e	2gg#	.	2E	2gg#	.
2AA	1e	2aa	2ccc#	2AA	2aa	2ccc#
[2A	.	2a	2cc#	[2A	2a	2cc#
=51	=51	=51	=51	=51	=51	=51
2A]	2r	1b	2dd	2A]	1b	2dd
1G	2B	.	2ee	1G	.	2ee
.	2e	2cc#	2a	.	2cc#	2a
2F#	2f#	2a	[2dd	2F#	2a	[2dd
=52	=52	=52	=52	=52	=52	=52
2E	2b	1g	2dd]	2E	1g	2dd]
2A	1a	.	2cc#	2A	.	2cc#
2D	.	2f#	2dd	2D	2f#	2dd
4G	[2g	2dd	[2b	4G	2dd	[2b
4F#	.	.	.	4F#	.	.
=53	=53	=53	=53	=53	=53	=53
4E	2g]	1cc#	2b]	4E	1cc#	2b]
4C#	.	.	.	4C#	.	.
4F#	1f#	.	1a	4F#	.	1a
4E	.	.	.	4E	.	.
4D	.	1b	.	4D	1b	.
4BB	.	.	.	4BB	.	.
4E	4g	.	[2g	4E	.	[2g
4D	4f#	.	.	4D	.	.
=54	=54	=54	=54	=54	=54	=54
4C#	4e	[1a	2g]	4C#	[1a	2g]
4AA	4c#	.	.	4AA	.	.
2D	4f#	.	2f#	2D	.	2f#
.	4e	.	.	.	.	.
1GG	4d	2a]	2B	1GG	2a]	2B
.	4B	.	.	.	.	.
.	4g	[2g	4e	.	[2g	4e
.	4f#	.	4d	.	.	4d
=55	=55	=55	=55	=55	=55	=55
[1AA	2e	2g]	2c#	[1AA	2g]	2c#
.	4f#	2f#	1d	.	2f#	1d
.	4g	.	.	.	.	.
1AA]	2a	1e	.	1AA]	1e	.
.	2A	.	2c#	.	.	2c#
=56	=56	=56	=56	=56	=56	=56
[2DD	[2A	[2f#	[2d	[2DD	[2f#	[2d
1.DD]	1.A]	1.f#]	1.d]	1.DD]	1.f#]	1.d]
==	==	==	==	==	==	==
*-	*-	*-	*-	*-	*-	*-
!!!RWG: This file only contains pitch and duration data.
!!!RWG: Transposing instruments are not transposed.
!!!RWG: Durations of rests and tied notes may be interpreted.
!!!RWG: Key is interpreted using the Humdrum key tool.
!!!SCA: 
!!!YOR: Chrysander Edition
!!!AGN: concerto grosso
!!!AFT: stage1
!!!ENC: F. Bennion
!!!END: 1997/04/15
!!!AST: baroque
!!!YEC: Copyright 1994, Center for Computer Assisted Research in the Humanities
!!!YEM: Rights to all derivative electronic formats reserved.
!!!YEM: Refer to licensing agreement for further details.
!!!YEN: United States of America
!!!EED: W.B. Hewlett
!!!KEY: 1214462677
!!!EMD: Converted from MuseData to Humdrum Aug 2, 1999, by Bret Aarden using muse2kern.
!!!VTS: 4097450255
